X:1
T:Boy in the Boat
M:4/4
L:1/8
K:D
A2AF DFAF|GFEF G2FG|ADD2 ADD2|GBGF DEFG|!
A2AF DFAF|GFEF G2FG|A2Ad B2Bd|cAGE D2Z2:|!
d2 ed cAAB|cA dB cA A2|d2 ed cAAB|cAGE ED D2|!
d2 ed cAAB|cA dB cA A2|f2 fd e2 ed|cAGE ED D2:|]!
